X: 116
T: No_43_I_Am_Called.krn
%%abc-version 2.0
%%abcx-abcm2ps-target-version 5.9.1 (29 Sep 2008)
%%abc-creator hum2abc beta
%%abcx-conversion-date 2020/08/10 18:54:56
%%gracespace 0 6 6
%%humdrum-veritas 4081609294
%%humdrum-veritas-data 4000662788
%%linebreak <none>
%%barnumbers 0
L: 1/8
M: 3/4
%%staves {1 2}
V: 1 clef=treble
V: 2 clef=bass
K: G
[V:1] [K:clef=treble][M:3/4]EE EE F3/G/ | 
[V:2] [K:clef=bass][M:3/4]G,,G,, G,,G,, G,,G,, | 
[V:1] E4-EB, | 
[V:2] z6 | 
[V:1] EE ED E/D3/ ||  
[V:2] z6 ||  
[V:1] [M:2/4]B,>B,B,2- | 
[V:2] [M:2/4]z4 | 
[V:1] B,4[K:clef=bass] | 
[V:2] z4 | 
[V:1] B,B, B,B, | 
[V:2] z4 | 
[V:1] B,B, ^CD ||  
[V:2] z4 ||  
[V:1] [M:3/4]B,4-B,G, ||  
[V:2] [M:3/4]z6 ||  
[V:1] [M:2/4]A,A, A,G, | 
[V:2] [M:2/4]z4 | 
[V:1] A,G,E,2 | 
[V:2] z4 | 
[V:1] E,4- | 
[V:2] z4 | 
[V:1] E,2B,,2 ||  
[V:2] z4 ||  
[V:1] [M:3/4]E,E, E,>E,E,2 ||  
[V:2] [M:3/4]z6 ||  
[V:1] [M:2/4]E,3B,, | 
[V:2] [M:2/4]z4 | 
[V:1] E,E, E,D, | 
[V:2] z4 | 
[V:1] (3E,E,D,B,,2 | 
[V:2] z4 | 
[V:1] B,,4 |]  
[V:2] z4 |]  


